X:1
T:197. Fuchsenritt
T:197. Fuchslied
T:(Volkslied des 1s. Jahrh.)
T:Volkweise. (Bei Hall' ist eine Mühl'.) Anonymous 
T:4. Er bringt ‘nen Fuchsen mit, :| er bringt ‘nen ledernen Fuchsen mit, ça, ça Fuchsen mit er bringt ‘nen Fuchsen mit. 5. “Ihr Diener, meine Herrn! :|  ihr Diener, meine hochzuverehrenden Herrn. ça, ça etc. 6. ”Was macht der Herr Papa? :| was was macht der hohe Herr Papa,etc. 7. “Er liest im Kikero, :| er liest im hohen Kikero,etc. 8. Was macht die Frau Mama? :| was macht die gnädige Frau Mama? etc. 9. “Sie fängt dem Papa Flöh’, :| sie fängt dem lederne Papa Flöh!" etc. 10. ”Was macht die Mamsel Soeur? :| was macht das lederne  Mamsel Soeur? etc. 11. ,.Sie sitzt zu Haus und näht'! :|  (Oser: Sie strickt dem Papa Strümpf!) etc. 12. Was mach der Herr Rector? :| was macht der lederne Herr Rector. etc. 13. “Er prügelt seine Bub’n! :| er prügelt seine ledernen Bub’n, etc. 14. Raucht auch der Fuchs Tabak? :| raucht auch der lederne Fuchs Tabak? etc. 15. “Ein wenig, meine Herrn! :| ein wenig, meine hochzuverehrenden Herrn! etc. 16. So steck’ Er sich eins an! :| so steck’ Er sich ein ledernes an! etc. 17. “Ach, ach, es wird mir weh! :| ach, ach, es wird mir ledern weh!" etc. 18. So brech´ Er sich 'mal aus! :| so brech´ Er sich mal ledern aus! etc. 19. “Jetzt ist mir wieder wohl! :| jetzt ist mir wieder ledern wohl! etc. 20. So wird der Fuchs ein Bursch, :| so wird der lederne Fuchs ein Bursch, ça, ça Fuchs ein Burschso wird der Fuchs ein Bursch. 
T:Public Domain - https://imslp.org/wiki/Fuchsenritt_(Anonymous)
C:Anonymous
Z:Public Domain - https://imslp.org/wiki/Fuchsenritt_(Anonymous)
%%score ( 1 2 ) { 3 | 4 }
L:1/8
Q:1/4=145
M:2/4
K:G
V:1 treble nm="Voice"
V:2 treble 
V:3 treble nm="Piano"
V:4 bass 
V:1
"^Lebhaft." D | G G G G | G3 A | B B B B | B3 c | d/ d/ d/ d/ d d/ d/ | d c c2 | B2 B B | B A A d | %9
w: 1. Was|kommt dort von der|Höh'. was|kommt dort von der|Höh'? was|kommt * dort * von der *|1. le\- dernen Höh,|ça. ça. *|le\- der\- Höh. was|
w: 2. Es|ist ein Po\- stil\-|lon. es|ist ein Po\- stil\-|lon. ed|ist * ein * le\- derner *|2. Po\- stil\- lon,|ça. ça. *|Po\- stil\-- lon, es|
w: 3. Was|bringt der Po\- stil\-|lon, was|bringt der Po\- stil\-|lon. was|bringt * der * le\- der\- ne|3. Po- stil- lon.|ça. ça. *|Po- stil- lon. was|
 B B A A | G2 z!D.C.! |] %11
w: kommt dort von der|Höh?|
w: ist ein Po\- stil\-|lon.|
w: bringt der Po- stil-|lon?|
V:2
 x | x4 | x4 | x4 | x4 | d d d d | x c/ c/ x2 | x2 B x | x A/ A/ x2 | x4 | x3 |] %11
w: ||||||||* nen|||
V:3
 D | [B,DG][B,DG][B,DG][B,DG] | [B,DG]3 [DFA] | [DGB][DGB][DGB][DGB] | [DGB]3 [DAc] | %5
 [DBd][DBd][DBd][DBd] | [DBd][DAc] [DAc]2 | [DGB]2 [DGB]2 | [DGB][DFA][DFA][DAd] | %9
 [DGB][DGB] [CFA][CFA] | [B,DG]2 z |] %11
V:4
 z | G,,2 G,2 | G,,2 D,2 | G,2 G,,2 | G,2 D,2 | G,,2 G,2 | F,,2 F,2 | G,2 B,,2 | D,2 D,F, | %9
 G,2 D,2 | G,D,G,, |] %11

